X: 7
T: The Maid Of Mount Kisco
R: reel
M: 4/4
L: 1/8
K: Edor
|:BE E2 FE E2|BE E2 FDED|BD D2 ED D2|BD D2 BDAD|
BE E2 FE E2|BE E2 FE (3FGA|Bd d2 ecdB|AFDF E3F:||
|:E3F AFEF|D2FD ADFD|E3F FE (3FGA|Bd3 dBAF |
E3F AFEF|D2FD ADFD|E3F FE (3FGA| BcdB A2 FA||
|:Be e2 fded | B2 AF DEFA|Be e2 fe e2| d2 Bc d2 (3Bcd|
e3c d3B|ABAF DE (3FGA|BE E2 Bc (3dcB| AFDF E3D:||


Tune 432	Setting 22752

